X:1
T:Lost in Sight of the Harbor
T:Lost in Sight of the Harbor
T:Charles Hutchinson Gabriel
T:John Ralston Clements, 1910
T:Public Domain Courtesy of the Cyber Hymnal™
T:Public Domain Courtesy of the Cyber Hymnal™
C:Charles Hutchinson Gabriel
Z:Public Domain
Z:Courtesy of the Cyber Hymnal™
%%score ( 1 2 ) ( 3 4 )
L:1/8
Q:1/4=113
M:9/8
K:Eb
V:1 treble 
V:2 treble 
V:3 bass 
V:4 bass 
V:1
 [GB]3- [GB]2 [GB] [GB][EG]E | [DF]3 E3 E3 | [Ec]3- [Ec]2 [Ec] (cd)[Ec] | [EB]8 z | %4
w: 1.~Lost * in sight of the|har- bor, Not|on * the track- * less|deep;|
w: 2.~Lost * in sight of the|har- bor, The|days * of sail- * ing|past,|
w: 3.~Lost * in sight of the|har- bor, The|shore * bells ring- * ing|clear,|
w: 4.~Lost * in sight of the|har- bor, Wrecked|by * the fogs * of|sin,|
w: 5.~Lost * in sight of the|har- bor, “Lost,”|what * a word * of|woe;|
 [DB]3- [DB]2 [DF] [DF][CE][DF] | [EG]3 [GB]3 [Gc]3 | [Fd]3- ([Fd][Ec])[DB] [Ec]2 [Fd] | [DB]6 || %8
w: Not * where o- cean is|black- est, Nor|where * * the wild winds|sweep.|
w: In * a few more brief|mo- ments, The|shore * * lines might be|cast.|
w: Their * sweet chimes the last|mu- sic That|many * * a soul shall|hear.|
w: Some * poor soul ship that’s|sail- ing, Can|nev- * * er en- ter|in.|
w: Choose * the on- ly sure|Pi- lot, Who|“all * * the way” doth|know.|
"^Refrain" [AB]3 | [Ge]3- [Ge]2 [Be] [Ae][Ad][Ac] | [GB]3 [EG]6 | [DB]4 [DF][EG] [FA][GB][FA] | %12
w: ||||
w: ||||
w: 1‑4.~But|lost * in sight of the|har- bor;|Lost for the want of a|
w: 5.~Then|safe * you’ll rest in the|har- bor;|Safe by the skill of a|
w: ||||
 [EG]8 z | [Ec]3- [Ec]2 [Ec] [Ec][Ee][Ec] | [EB]3 [EG]3 E3 | [DF]4 [EG][GB] ([FA][EG])[DF] | %16
w: ||||
w: ||||
w: hand;|Strong * and cer- tain and|stead- fast, To|pi- lot safe to * the|
w: hand,|Strong * and cer- tain and|stead- fast, The|Pi- lot to “glo- * ry|
w: ||||
 E8 z |] %17
w: |
w: |
w: land.|
w: land.”|
w: |
V:2
 x8 E | x3 E3 E3 | x6 E2 x | x9 | x9 | x9 | x9 | x6 || x3 | x9 | x9 | x9 | x9 | x9 | x6 E3 | x9 | %16
 E8 x |] %17
V:3
 [E,E]3- [E,E]2 [E,E] [E,E][E,B,][E,G,] | [B,,A,]3 [E,G,]3 [E,G,]3 | %2
 [A,,A,]3- [A,,A,]2 [A,,A,] (A,B,)[A,,A,] | [E,G,]8 z | %4
 [B,,F,]3- [B,,F,]2 [B,,B,] [B,,A,][B,,G,][B,,B,] | [E,B,]3 [E,E]3 [E,B,]3 | %6
 [F,B,]3- (B,=A,)[F,B,] [F,A,]2 [F,A,] | [B,,B,]6 || B,3 | %9
 [E,B,]3- [E,B,]2 [G,_D] [A,C][A,C][A,E] | [E,E]3 [E,B,]6 | %11
 [B,,B,]4 [B,,B,][B,,B,] [B,,B,][B,,B,][B,,B,] | [E,B,]8 z | A,3- A,2 A, A,[A,C]A, | %14
 [E,G,]3 [E,B,]3 [E,G,]3 | [B,,B,]4 [B,,B,][B,,B,] [B,,B,]2 [B,,B,] | [E,G,]8 z |] %17
V:4
 x9 | x9 | x6 A,,2 x | x9 | x9 | x9 | x3 F,2 x4 | x6 || B,3 | x9 | x9 | x9 | x9 | %13
 A,3- A,2 A, A,A, x | x9 | x9 | x9 |] %17

